X: 22186
T: La Belle Pauline
R: reel
M: 4/4
K: Dmajor
|:A|d2 dA FD D2|Beed cABc|d2 dA FDDF|GEAG FD D2|
d2 dA FD D2|Beed cABc|d2 dA FDDF|GBAG FDD:|
|:G|FD[A,A]D FD[A,A]D|EFGA B2 AG|FDAD FD D2|GBAG FD D2|
FDAD FD D2|EFGA B2 AG|FAdA GBed|1 cAGE FDD:|2 cABc d3||

